SVG_Azure_All/SQL Database.svg

<?xml version="1.0" encoding="UTF-8" standalone="no"?>
<!-- Generated by Microsoft Visio, SVG Export SQL Database.svg Page-1 -->

<svg
   xmlns:dc="http://purl.org/dc/elements/1.1/"
   xmlns:cc="http://creativecommons.org/ns#"
   xmlns:rdf="http://www.w3.org/1999/02/22-rdf-syntax-ns#"
   xmlns:svg="http://www.w3.org/2000/svg"
   xmlns="http://www.w3.org/2000/svg"
   xmlns:sodipodi="http://sodipodi.sourceforge.net/DTD/sodipodi-0.dtd"
   xmlns:inkscape="http://www.inkscape.org/namespaces/inkscape"
   width="0.59055233in"
   height="0.78748322in"
   viewBox="0 0 42.519769 56.699102"
   xml:space="preserve"
   class="st6"
   version="1.1"
   id="svg62"
   sodipodi:docname="SQL Database.svg"
   style="font-size:12px;overflow:visible;color-interpolation-filters:sRGB;fill:none;fill-rule:evenodd;stroke-linecap:square;stroke-miterlimit:3"
   inkscape:version="0.92.5 (2060ec1f9f, 2020-04-08)"><metadata
   id="metadata66"><rdf:RDF><cc:Work
       rdf:about=""><dc:format>image/svg+xml</dc:format><dc:type
         rdf:resource="http://purl.org/dc/dcmitype/StillImage" /></cc:Work></rdf:RDF></metadata><sodipodi:namedview
   pagecolor="#ffffff"
   bordercolor="#666666"
   borderopacity="1"
   objecttolerance="10"
   gridtolerance="10"
   guidetolerance="10"
   inkscape:pageopacity="0"
   inkscape:pageshadow="2"
   inkscape:window-width="640"
   inkscape:window-height="480"
   id="namedview64"
   showgrid="false"
   inkscape:zoom="1.4193119"
   inkscape:cx="28.346509"
   inkscape:cy="37.786193"
   inkscape:window-x="0"
   inkscape:window-y="0"
   inkscape:window-maximized="0"
   inkscape:current-layer="svg62" />
	<style
   type="text/css"
   id="style2">
	<![CDATA[
		.st1 {fill:url(#grad0-6);stroke:none;stroke-linecap:butt;stroke-width:34}
		.st2 {fill:#e8e8e8;stroke:none;stroke-linecap:butt;stroke-width:34}
		.st3 {fill:#50e6ff;stroke:none;stroke-linecap:butt;stroke-width:34}
		.st4 {fill:#198ab3;stroke:none;stroke-linecap:butt;stroke-width:34}
		.st5 {fill:url(#grad3-16);stroke:none;stroke-linecap:butt;stroke-width:34}
		.st6 {fill:none;fill-rule:evenodd;font-size:12px;overflow:visible;stroke-linecap:square;stroke-miterlimit:3}
	]]>
	</style>

	<defs
   id="Patterns_And_Gradients">
		<linearGradient
   id="grad0-6"
   x1="0"
   y1="70.5925"
   x2="45.626519"
   y2="70.5925"
   gradientTransform="scale(0.93191419,1.0730602)"
   gradientUnits="userSpaceOnUse">
			<stop
   offset="0"
   stop-color="#005ba1"
   stop-opacity="1"
   id="stop4" />
			<stop
   offset="0.07"
   stop-color="#0060a9"
   stop-opacity="1"
   id="stop6" />
			<stop
   offset="0.36"
   stop-color="#0071c8"
   stop-opacity="1"
   id="stop8" />
			<stop
   offset="0.52"
   stop-color="#0078d4"
   stop-opacity="1"
   id="stop10" />
			<stop
   offset="0.64"
   stop-color="#0074cd"
   stop-opacity="1"
   id="stop12" />
			<stop
   offset="0.82"
   stop-color="#006abb"
   stop-opacity="1"
   id="stop14" />
			<stop
   offset="1"
   stop-color="#005ba1"
   stop-opacity="1"
   id="stop16" />
		</linearGradient>
		<radialGradient
   id="grad3-16"
   cx="12.187934"
   cy="162.05573"
   r="17.796458"
   gradientTransform="scale(1.3972022,0.71571603)"
   fx="12.187934"
   fy="162.05573"
   gradientUnits="userSpaceOnUse">
			<stop
   offset="0"
   stop-color="#f2f2f2"
   stop-opacity="1"
   id="stop19" />
			<stop
   offset="0.58"
   stop-color="#eeeeee"
   stop-opacity="1"
   id="stop21" />
			<stop
   offset="1"
   stop-color="#e6e6e6"
   stop-opacity="1"
   id="stop23" />
		</radialGradient>
	</defs>
	<g
   id="g60"
   transform="translate(-34.000303,-33.9952)">
		<title
   id="title27">Page-1</title>
		<g
   id="group1443-1"
   transform="translate(34,-34.0157)">
			<title
   id="title29">SQL Database</title>
			<g
   id="group1444-2">
				<title
   id="title31">Sheet.1444</title>
				<g
   id="shape1445-3">
					<title
   id="title33">Sheet.1445</title>
					<path
   d="M 21.26,83.49 C 9.52,83.49 0,80.15 0,75.75 v 41.22 c 0,4.24 9.35,7.67 20.96,7.74 h 0.3 c 11.74,0 21.26,-3.34 21.26,-7.74 V 75.75 c 0,4.3 -9.52,7.74 -21.26,7.74 z"
   class="st1"
   id="path35"
   inkscape:connector-curvature="0"
   style="fill:url(#grad0-6);stroke:none;stroke-width:34;stroke-linecap:butt" />
				</g>
				<g
   id="shape1446-7"
   transform="translate(0,-41.2191)">
					<title
   id="title38">Sheet.1446</title>
					<path
   d="m 42.52,116.97 c 0,4.3 -9.52,7.74 -21.26,7.74 C 9.52,124.71 0,121.37 0,116.97 c 0,-4.4 9.52,-7.74 21.26,-7.74 11.74,0 21.26,3.34 21.26,7.74 z"
   class="st2"
   id="path40"
   inkscape:connector-curvature="0"
   style="fill:#e8e8e8;stroke:none;stroke-width:34;stroke-linecap:butt" />
				</g>
				<g
   id="shape1447-9"
   transform="translate(4.94184,-44.654)">
					<title
   id="title43">Sheet.1447</title>
					<path
   d="m 32.64,119.77 c 0,2.74 -7.33,4.94 -16.32,4.94 -8.99,0 -16.32,-2.2 -16.32,-4.94 0,-2.73 7.33,-4.9 16.32,-4.9 8.99,0 16.32,2.2 16.32,4.9 z"
   class="st3"
   id="path45"
   inkscape:connector-curvature="0"
   style="fill:#50e6ff;stroke:none;stroke-width:34;stroke-linecap:butt" />
				</g>
				<g
   id="shape1448-11"
   transform="translate(8.358,-44.654)">
					<title
   id="title48">Sheet.1448</title>
					<path
   d="m 12.9,121.01 a 38.3075,38.5178 -180 0 0 -12.9,1.9 37.8763,38.0843 -180 0 0 12.9,1.8 36.9808,37.1839 -180 0 0 12.9,-1.94 39.2694,39.4849 -180 0 0 -12.9,-1.76 z"
   class="st4"
   id="path50"
   inkscape:connector-curvature="0"
   style="fill:#198ab3;stroke:none;stroke-width:34;stroke-linecap:butt" />
				</g>
				<g
   id="shape1449-13"
   transform="translate(5.30667,-14.4067)">
					<title
   id="title53">Sheet.1449</title>
					<path
   d="M 28.89,118.77 V 107.43 H 25.9 v 13.78 h 8.16 v -2.44 z M 5.21,113.2 a 6.0695,6.10283 0 0 1 -1.69,-1.03 1.45933,1.46735 0 0 1 -0.4,-1.07 1.12767,1.13386 0 0 1 0.5,-1 2.25533,2.26772 0 0 1 1.39,-0.4 5.373,5.4025 0 0 1 3.31,0.97 V 107.8 A 8.557,8.60398 -180 0 0 5.01,107.27 5.43934,5.4692 -180 0 0 1.39,108.4 3.582,3.60167 -180 0 0 0,111.37 c 0,1.7 1.06,3.03 3.32,4.03 a 9.552,9.60445 0 0 1 2.05,1.2 1.393,1.40065 0 0 1 0.5,1.07 1.26033,1.26725 0 0 1 -0.53,1.04 2.6865,2.70125 0 0 1 -1.49,0.36 5.50567,5.5359 0 0 1 -3.62,-1.4 v 3.1 a 7.19717,7.23668 -180 0 0 3.55,0.8 6.23534,6.26957 -180 0 0 3.91,-1.1 3.582,3.60167 -180 0 0 1.1,-3.03 3.4825,3.50162 -180 0 0 -0.83,-2.34 8.02634,8.0704 -180 0 0 -2.75,-1.9 z m 17.38,5.31 a 7.761,7.80361 -180 0 0 1.09,-4.21 7.69467,7.73692 -180 0 0 -1.09,-3.53 6.00317,6.03613 -180 0 0 -2.33,-2.5 6.63334,6.66975 -180 0 0 -3.31,-0.87 6.99817,7.03659 -180 0 0 -3.58,0.9 6.169,6.20287 -180 0 0 -2.42,2.47 8.159,8.2038 -180 0 0 -0.87,3.8 7.49567,7.53682 -180 0 0 0.8,3.34 5.83734,5.86938 -180 0 0 2.29,2.46 6.83234,6.86985 -180 0 0 3.31,1 l 2.86,3.34 h 4.01 l -4.08,-3.67 a 5.93684,5.96943 -180 0 0 3.32,-2.53 z m -3.32,-0.84 a 3.11767,3.13478 0 0 1 -2.52,1.17 3.05133,3.06809 0 0 1 -2.52,-1.2 5.04134,5.06901 0 0 1 -0.96,-3.34 5.0745,5.10236 0 0 1 0.96,-3.33 3.31667,3.33488 0 0 1 2.59,-1.23 2.8855,2.90134 0 0 1 2.48,1.23 5.373,5.4025 0 0 1 0.9,3.33 4.84234,4.86892 0 0 1 -0.93,3.37 z"
   class="st5"
   id="path55"
   inkscape:connector-curvature="0"
   style="fill:url(#grad3-16);stroke:none;stroke-width:34;stroke-linecap:butt" />
				</g>
			</g>
		</g>
	</g>
</svg>

<?xml version="1.0" encoding="UTF-8" standalone="no"?>
<!DOCTYPE svg PUBLIC "-//W3C//DTD SVG 1.1//EN" "http://www.w3.org/Graphics/SVG/1.1/DTD/svg11.dtd">
<!-- Generated by Microsoft Visio, SVG Export SQL Database.svg Page-1 -->
<svg xmlns="http://www.w3.org/2000/svg" xmlns:xlink="http://www.w3.org/1999/xlink" xmlns:ev="http://www.w3.org/2001/xml-events"
		width="1.535in" height="1.73206in" viewBox="0 0 110.52 124.709" xml:space="preserve" color-interpolation-filters="sRGB"
		class="st6">
	<style type="text/css">
	<![CDATA[
		.st1 {fill:url(#grad0-6);stroke:none;stroke-linecap:butt;stroke-width:34}
		.st2 {fill:#e8e8e8;stroke:none;stroke-linecap:butt;stroke-width:34}
		.st3 {fill:#50e6ff;stroke:none;stroke-linecap:butt;stroke-width:34}
		.st4 {fill:#198ab3;stroke:none;stroke-linecap:butt;stroke-width:34}
		.st5 {fill:url(#grad3-16);stroke:none;stroke-linecap:butt;stroke-width:34}
		.st6 {fill:none;fill-rule:evenodd;font-size:12px;overflow:visible;stroke-linecap:square;stroke-miterlimit:3}
	]]>
	</style>

	<defs id="Patterns_And_Gradients">
		<linearGradient id="grad0-6" x1="0" y1="0" x2="1" y2="0" gradientTransform="rotate(0 0.5 0.5)">
			<stop offset="0" stop-color="#005ba1" stop-opacity="1"/>
			<stop offset="0.07" stop-color="#0060a9" stop-opacity="1"/>
			<stop offset="0.36" stop-color="#0071c8" stop-opacity="1"/>
			<stop offset="0.52" stop-color="#0078d4" stop-opacity="1"/>
			<stop offset="0.64" stop-color="#0074cd" stop-opacity="1"/>
			<stop offset="0.82" stop-color="#006abb" stop-opacity="1"/>
			<stop offset="1" stop-color="#005ba1" stop-opacity="1"/>
		</linearGradient>
		<radialGradient id="grad3-16" cx="0.5" cy="0.5" r="0.73">
			<stop offset="0" stop-color="#f2f2f2" stop-opacity="1"/>
			<stop offset="0.58" stop-color="#eeeeee" stop-opacity="1"/>
			<stop offset="1" stop-color="#e6e6e6" stop-opacity="1"/>
		</radialGradient>
	</defs>
	<g>
		<title>Page-1</title>
		<g id="group1428-1" transform="translate(34,-34.0157)">
			<title>SQL Database</title>
			<g id="group1429-2">
				<title>Sheet.1429</title>
				<g id="shape1430-3">
					<title>Sheet.1430</title>
					<path d="M21.26 83.49 C9.52 83.49 0 80.15 0 75.75 L0 116.97 C0 121.21 9.35 124.64 20.96 124.71 L21.26 124.71
								 C33 124.71 42.52 121.37 42.52 116.97 L42.52 75.75 C42.52 80.05 33 83.49 21.26 83.49 Z" class="st1"/>
				</g>
				<g id="shape1431-7" transform="translate(0,-41.2191)">
					<title>Sheet.1431</title>
					<path d="M42.52 116.97 C42.52 121.27 33 124.71 21.26 124.71 C9.52 124.71 0 121.37 0 116.97 C0 112.57 9.52 109.23
								 21.26 109.23 C33 109.23 42.52 112.57 42.52 116.97 Z" class="st2"/>
				</g>
				<g id="shape1432-9" transform="translate(4.94184,-44.654)">
					<title>Sheet.1432</title>
					<path d="M32.64 119.77 C32.64 122.51 25.31 124.71 16.32 124.71 C7.33 124.71 0 122.51 0 119.77 C0 117.04 7.33
								 114.87 16.32 114.87 C25.31 114.87 32.64 117.07 32.64 119.77 Z" class="st3"/>
				</g>
				<g id="shape1433-11" transform="translate(8.358,-44.654)">
					<title>Sheet.1433</title>
					<path d="M12.9 121.01 A38.3075 38.5178 -180 0 0 0 122.91 A37.8763 38.0843 -180 0 0 12.9 124.71 A36.9808 37.1839
								 -180 0 0 25.8 122.77 A39.2694 39.4849 -180 0 0 12.9 121.01 Z" class="st4"/>
				</g>
				<g id="shape1434-13" transform="translate(5.30667,-14.4067)">
					<title>Sheet.1434</title>
					<path d="M28.89 118.77 L28.89 107.43 L25.9 107.43 L25.9 121.21 L34.06 121.21 L34.06 118.77 L28.89 118.77 ZM5.21
								 113.2 A6.0695 6.10283 0 0 1 3.52 112.17 A1.45933 1.46735 0 0 1 3.12 111.1 A1.12767 1.13386 0 0 1
								 3.62 110.1 A2.25533 2.26772 0 0 1 5.01 109.7 A5.373 5.4025 0 0 1 8.32 110.67 L8.32 107.8 A8.557
								 8.60398 -180 0 0 5.01 107.27 A5.43934 5.4692 -180 0 0 1.39 108.4 A3.582 3.60167 -180 0 0 0 111.37
								 C0 113.07 1.06 114.4 3.32 115.4 A9.552 9.60445 0 0 1 5.37 116.6 A1.393 1.40065 0 0 1 5.87 117.67
								 A1.26033 1.26725 0 0 1 5.34 118.71 A2.6865 2.70125 0 0 1 3.85 119.07 A5.50567 5.5359 0 0 1 0.23
								 117.67 L0.23 120.77 A7.19717 7.23668 -180 0 0 3.78 121.57 A6.23534 6.26957 -180 0 0 7.69 120.47
								 A3.582 3.60167 -180 0 0 8.79 117.44 A3.4825 3.50162 -180 0 0 7.96 115.1 A8.02634 8.0704 -180 0 0
								 5.21 113.2 ZM22.59 118.51 A7.761 7.80361 -180 0 0 23.68 114.3 A7.69467 7.73692 -180 0 0 22.59 110.77
								 A6.00317 6.03613 -180 0 0 20.26 108.27 A6.63334 6.66975 -180 0 0 16.95 107.4 A6.99817 7.03659 -180
								 0 0 13.37 108.3 A6.169 6.20287 -180 0 0 10.95 110.77 A8.159 8.2038 -180 0 0 10.08 114.57 A7.49567
								 7.53682 -180 0 0 10.88 117.91 A5.83734 5.86938 -180 0 0 13.17 120.37 A6.83234 6.86985 -180 0 0 16.48
								 121.37 L19.34 124.71 L23.35 124.71 L19.27 121.04 A5.93684 5.96943 -180 0 0 22.59 118.51 ZM19.27
								 117.67 A3.11767 3.13478 0 0 1 16.75 118.84 A3.05133 3.06809 0 0 1 14.23 117.64 A5.04134 5.06901
								 0 0 1 13.27 114.3 A5.0745 5.10236 0 0 1 14.23 110.97 A3.31667 3.33488 0 0 1 16.82 109.74 A2.8855
								 2.90134 0 0 1 19.3 110.97 A5.373 5.4025 0 0 1 20.2 114.3 A4.84234 4.86892 0 0 1 19.27 117.67 Z"
							class="st5"/>
				</g>
			</g>
		</g>
	</g>
</svg>
